src/assets/img/icons/duotone-icons/Devices/Wi-fi.svg

<?xml version="1.0" encoding="UTF-8"?>
<svg width="24px" height="24px" viewBox="0 0 24 24" version="1.1" xmlns="http://www.w3.org/2000/svg" xmlns:xlink="http://www.w3.org/1999/xlink">
    <!-- Generator: Sketch 52.2 (67145) - http://www.bohemiancoding.com/sketch -->
    <title>Stockholm-icons / Devices / Wi-fi</title>
    <desc>Created with Sketch.</desc>
    <g id="Stockholm-icons-/-Devices-/-Wi-fi" stroke="none" stroke-width="1" fill="none" fill-rule="evenodd">
        <rect id="bound" x="0" y="0" width="24" height="24"></rect>
        <path d="M19.366142,13.9305937 L17.2619853,15.6656848 C15.9733542,14.1029531 14.0626842,13.1818182 11.9984835,13.1818182 C9.94104045,13.1818182 8.03600715,14.0968752 6.74725784,15.6508398 L4.64798148,13.9098472 C6.44949126,11.7375997 9.12064835,10.4545455 11.9984835,10.4545455 C14.8857906,10.4545455 17.5648042,11.7460992 19.366142,13.9305937 Z M23.5459782,10.4257575 L21.4473503,12.1675316 C19.1284914,9.37358605 15.6994058,7.72727273 11.9984835,7.72727273 C8.30267753,7.72727273 4.87785708,9.36900008 2.55893241,12.1563207 L0.462362714,10.4120696 C3.29407133,7.00838857 7.48378666,5 11.9984835,5 C16.519438,5 20.7143528,7.01399004 23.5459782,10.4257575 Z" id="Combined-Shape" fill="#335EEA" opacity="0.3"></path>
        <path d="M15.1189503,17.3544974 L13.0392442,19.1188213 L11.9619232,20 L10.9331836,19.1485815 L8.80489611,17.4431757 C9.57552634,16.4814558 10.741377,15.9090909 11.9984835,15.9090909 C13.215079,15.9090909 14.347452,16.4450896 15.1189503,17.3544974 Z" id="Oval-21" fill="#335EEA"></path>
    </g>
</svg>

<svg width="24" height="24" viewBox="0 0 24 24" xmlns="http://www.w3.org/2000/svg"><g fill="none" fill-rule="evenodd"><path d="M0 0h24v24H0z"/><path d="M19.366 13.93l-2.104 1.736a6.8 6.8 0 00-5.264-2.484 6.8 6.8 0 00-5.25 2.469l-2.1-1.741a9.527 9.527 0 017.35-3.455 9.527 9.527 0 017.368 3.476zm4.18-3.504l-2.099 1.742a12.242 12.242 0 00-9.449-4.44c-3.695 0-7.12 1.641-9.44 4.428L.463 10.412A14.969 14.969 0 0111.998 5c4.521 0 8.716 2.014 11.548 5.426z" fill="#335EEA" opacity=".3"/><path d="M15.119 17.354l-2.08 1.765-1.077.881-1.029-.851-2.128-1.706a4.085 4.085 0 013.193-1.534c1.217 0 2.35.536 3.121 1.445z" fill="#335EEA"/></g></svg>
